X:1
T:Title
%%score 1 2 3 4
L:1/8
Q:1/4=95
M:6/8
K:F
V:1 treble nm="Church Organ, Church Organ"
V:2 treble nm="French Horn, French Horn"
V:3 bass nm="Trombone, Trombone"
V:4 bass nm="Tuba, Tuba"
V:1
 CFG Acd | d3 A3 | c3 G3 | A3 F3 | CFG Acd | d3 A3 | c3 =B3 | A3 .A3 | %8
w: By~W.~A.~Post * * * * *||||||||
 [GB][FA][EG] [_E^F][=EG][Bd] | [Ac]3 [FA]3 | [GB]3 [EG]3 | [_Ad]3 [=Ac]3 | %12
w: ||||
 [Af][ce][Bd] [Ac][GB][FA] | [DG]3 [B,D]3 | [CE]3 [Ec]3 | F3 .F3 | C3 .D3 | E3 .F3 | A3 e2 d | %19
w: |||||||
 c3 .A3 | c3 B3 | A3 G3 | F2 A G2 D | G3 .G3 | C3 D3 | E3 F3 | A3 c3 | B3 .B3 | e3 d2 B | d3 c2 C | %30
w: |||||||||||
 A3 G3 | F3 .F3 |] %32
w: ||
V:2
 [A,C]2 [A,C] [CF]2 [DFA] | [DFA]3 [A,CF]3 | [CEG]3 [CE]3 | [CF]3 [A,C]3 | %4
 [A,C]2 [A,C] [CF]2 [DFA] | [DFA]3 [DF]3 | [EA]3 [D_A]3 | [CE]3 .[CE]3 | z6 | z6 | z6 | z6 | z6 | %13
 z6 | z6 | z6 | A,A,A, .[A,C]3 | [A,C][K:treble][A,C][A,C] .[A,C]3 | FFF [F_A]2 [FA] | %19
 [FA][FA][FA] .[FA]3 | [EG]3 [DE]3 | [CE]3 [B,E]3 | A,2 C =B,2 B, | CED .C3 | z6 | z6 | z6 | z6 | %28
 [F_A=B]3 .[FAB]3 | [FA]3 .[FA]3 | [CE]3 [CE]3 | [A,C]3 .[A,C]3 |] %32
V:3
 z6 | z6 | z6 | z6 | z6 | z6 | z6 | z6 | z6 | z6 | z6 | z6 | z6 | z6 | z6 | A,3 .A,3 | z6 | z6 | %18
 z6 | z6 | z6 | z6 | z6 | E,G,F, .E,3 | z6 | z6 | z6 | z6 | z6 | z6 | z6 | z6 |] %32
V:4
 F,,2 C, F,2 C, | F,,2 C, F,2 C, | C,,2 C, E,2 C, | F,,2 C, F,2 C, | F,,2 C, F,2 C, | %5
w: Whis ing~ winds~ ly~|sigh * ing,~ *|day * light~ *|dy * ing,~ *|Stars~ the~ low ing~|
 F,,2 C, F,2 C, | E,,2 E, _A,2 E, | A,E,C, .A,,3 | C,,2 C, B,2 C, | F,,2 C, F,2 C, | %10
w: heav * ens~ *|slow * ly~ *|creep,~ * * *|Flut ing~ wings~ the~|an * gels~ *|
 C,,2 C, B,2 C, | F,,2 C, F,2 C, | F,,2 C, F,2 C, | B,,2 D, G,2 D, | C,2 E, B,2 E, | %15
w: swift~ * des *|cend * ing,~ *|Beau ful~ cho a|wak * ing~ *|earth~ * from~ *|
 F,C,A,, .F,,3 | [F,,C,F,][F,,C,F,][F,,C,F,] .[F,,C,F,]3 | %17
w: sleep.~ * * *|Hail~ * * Him!~|
 [F,,C,F,][F,,C,F,][F,,C,F,] .[F,,C,F,]3 | [F,C][F,C][F,C] [F,=B,]3 | [F,C][F,C][F,C] .[F,C]3 | %20
w: hail~ * * Him!~|Je * * sus~|ho * * ly,~|
 C,,E,E, E,3 | C,,E,E, E,3 | [F,,C,]2 [F,,F,] [G,,F,]2 [G,,F,] | B,,3 .B,,3 | %24
w: Hal * * le|lu * * jah,~|sing~ un to~ His~|name;~ *|
 F,,[C,F,A,][C,F,A,] [C,F,A,]3 | F,,[C,F,A,][C,F,A,] [C,F,A,]3 | F,,[F,A,_E][F,A,E] [F,A,E]3 | %27
w: Now~ * * and~|ev * * er|more~ * * the~|
 B,,[F,DF][F,DF] .[F,B,D]3 | =B,,F,_A, .=B,3 | C,F,A, .C3 | C,E,G, B,2 E, | F,C,A,, .F,,3 |] %32
w: same,~ * * *|Hail~ * * Him~|glad * * ness,~|pow'r~ * * pro *|claim.~ * * *|

